X: 1641
T: Sabâ Peşrev (Mevlânâ)
C: Kemânî Hamza
O: Turkey
F: http://compmusic.upf.edu/node/140
N: saba--pesrev--nimsofyan--mevlana--kemani_hamza
N: makam= saba
N: form= pesrev
N: usul= nimsofyan = 2/4
M: 2/4
L: 1/16
K: C _2/4B _3/4d  
Q: 1/4=81
%%MIDI tuningsystem comma53
G2A2 GAG2  | A2B2 ABA2  | B2c2 cdBd  | c4 z4  | \
w:   |   |   |   | 
c2d4(3edc  | 
w:   | 
c4 B4  | cBcd cdcB  | c3B A4  | BABc BAB2  | \
w:   |   |   |   | 
cBcd cBc2  | 
w:   | 
e3c d3B  | c4 B4  | cBcd cdcB  | c/B/c/d/cB A4  | 
w:   |   |   |   | 
BABc BAB2  | cBcd cBc2  | cdef gfed  | 
w:   |   |   | 
cdcB ABcd  | B2cc c2c2  | G2c2 G2c2  | G2cc c2z2  | 
w:   |   |   |   | 
c2e4dc  | c2f4ed  | d2g4fe  | fg_7/8ag a2gf  | \
w:   |   |   |   | 
efgf g2fe  | 
w:   | 
defe f2ed  | c2d4dc  | c4 B4  | cBcd cdcB  | 
w:   |   |   |   | 
c3B A4  | BABc BAB2  | cBcd cBc2  | e3c d3B  | 
w:   |   |   |   | 
c4 B4  | cBcd cdcB  | c3B A4  | BABc BAB2  | \
w:   |   |   |   | 
cBcd cBc2  | 
w:   | 
cdef gfed  | cdcB ABcd  | B2cc c2c2  | 
w:   |   |   | 
G2c2 G2c2  | G2cc c2z2  | cBcd cdcB  | c3B A4  | \
w:   |   |   |   | 
BABc BAB2  | 
w:   | 
cBcd cBc2  | e3c d3c  | c4 B4  | cBcd cdcB  | 
w:   |   |   |   | 
c3B A4  | BABc BAG2  | ABc4BA  | A4 z4  | _7/8agfe fgag  | 
w:   |   |   |   |   | 
f3_7/8a g4  | g8  | g8  | b_7/8agf edcB  | \
w:   |   |   |   | 
cdef g_7/8agf  | 
w:   | 
e3g f3_7/8a  | gfed c2d2  | efed c4  | B4 cBc2  | \
w:   |   |   |   | 
dcd2 ede2  | 
w:   | 
fef2 gfg2  | _7/8agab agf2  | gfg_7/8a gfe2  | \
w:   |   |   | 
fefg fed2  | 
w:   | 
edef edcd  | c4 B4  | cBcd cdcB  | c/B/c/d/cB A4  | 
w:   |   |   |   | 
BABc BAB2  | cBcd cBc2  | cdef gfed  | 
w:   |   |   | 
cdcB ABcd  | B2cc c2c2  | G2c2 G2c2  | G2cc c2z2  | 
w:   |   |   |   | 
c2e4dc  | c2f4ed  | d2g4fe  | fg_7/8ag a2gf  | \
w:   |   |   |   | 
efgf g2fe  | 
w:   | 
defe f2ed  | c2d4dc  | c4 B4  | cBcd cdcB  | 
w:   |   |   |   | 
c3B A4  | BABc BAG2  | ABc4BA  | A4 z4  | |


